X: 32980
T: Pretty Girl Milking Her Cow, The
R: waltz
M: 3/4
K: Eminor
EDEF|:G2B2- BGF2|A3F EFD2-|D4- DEEF|G2B2- BGF2|A2FG E4-|E4- EDEF|
G2B2- BGF2|d3F EFD2-|D4- DABA|G3F EDB,2|E2ED E4-|E4 EDEF:|
|:G3A Bcd2|B3G GFD2-|D4- DEEF|G3A Bcd2|B2dB e3c|egf2- fgfe|
d2Bc dBG2|A3G GFD2-|D4- DABA|G3F EDB,2|E2ED E4-|1 E4 EDEF:|2 E4||

